X:1
T:Title
L:1/8
Q:1/4=130
M:4/4
K:F
V:1 treble nm="Church Organ, Staff"
V:1
 F2 F2 G2 A2 | B2 c2 A2 F2 | B2 G4 G2- | G2 A6 | A2 B2 c2 d2 | _e2 d2 c2 B2 | A2 G4 ^F2- | F2 G6 | %8
w: By~Rev.~R.~F.~Smith * * *||||||||
 G2 A4 =B2- | B2 c6 | A2 G4 F2- | F2 E6 | E2 F4 B2- | B2 A2- AG F2 | G2 F4 E2- | E2 F6 |] %16
w: ||||||||

